icon-themes/breeze_svg/cmd/lc_animationeffects.svg

<svg viewBox="0 0 24 24" xmlns="http://www.w3.org/2000/svg"><path d="m7 4a1 1 0 0 0 -1 1 1 1 0 0 0 1 1 1 1 0 0 0 1-1 1 1 0 0 0 -1-1zm1 3 .0058594 13 3.8945316-4.699219 6.099609-.300781z" fill="#4d4d4d"/></svg>

<svg xmlns="http://www.w3.org/2000/svg" viewBox="0 0 24 24">
 <path 
     style="fill:#4d4d4d" 
     d="M 7 4 A 1 1 0 0 0 6 5 A 1 1 0 0 0 7 6 A 1 1 0 0 0 8 5 A 1 1 0 0 0 7 4 z M 8 7 L 8.0058594 20 L 11.900391 15.300781 L 18 15 L 8 7 z "
     />
 </svg>
